X:24
T:It's a Long Way from Finished
R:reel
C:Paul Cranford, SOCAN
S:Tune of the Month, Nov. 2001,Silver Apple News 8
Z:Paul Stewart Cranford (P.S.C.), <http://www.cranfordpub.com>
Q:333
L:1/8
M:C|
K:Em
D|B,E E2 B,edB|ABdA BAFD|B,E E2 GedB|AB dF E3 A|  
BEeE BedB|ABdA BAFd|eB B2 dABe|dBAF E2 E:|  
|:d|eBgB ebag|(f/g/a) da bdaf|eB B2 gbag|agfg e2 ef|
eBgB ebag|(f/g/a) da bdaf|eB B2 dABe dBAF E2 E:|]
